X:304
T:Half Hannikin
M:6/8
L:1/8
C:John Playford, 1651
S:Colin Hume's website,  colinhume.com  - chords can also be printed below the stave.
N:There are several versions of this dance, with different length music!
Q:3/8=112
K:G
P:A
|: "G"B>cd d2c | "G"B>cB "D7"A2G | "G"B>cd d>cB | "D7"A>GF "G"G3 :|
P:B
|: "G"B3 "C"c3 | "G"B3 "D7"A2G | "G"B>AB "C"c2B | "D7"A>GF "G"G3 :|
P:C
|: "G"B>AB "C"c>dc | "G"B>AB "D7"A2G | "G"B>AB "C"c>dB | "D7"A>GF "G"G3 :|

